X:1
T:Vals efter Möiroll
R:Vals
S:John Björklund
H:Efter Olov Larsson, Möir,Ostibyn,Ersnäs
O:Ersnäs, Norrbotten
Z:ABC-transkribering av Johan Dahlberg
M:3/4
L:1/8
K:C
|C2E2G2|c2B2_B2|A2A3=B/2|A6|G,2B,2D2|G6|F2 ((3EFE) D2|E6|
C2E2G2|c2B2_B2|A2A3=B/2|A4 G/2>A|B2B3c/2|B2A2B2|c2c3d/2|c6:|
|:e6|e2d2e2|(f6|f) e dc BA|G2 g2g2|B2 g2g2|e3 dcA|G2c2d2|
e6|e2d2e2|(f6|f) e dc BA|G2 gg g2|ba gf ed|c2z2c2|1c2z2c2:|2c6z2|]

